assets/icons/qvision/burst_mode.svg

<svg xmlns="http://www.w3.org/2000/svg" height="24" viewBox="0 0 24 24" width="24"><path d="M0 0h24v24H0V0z" fill="none"/><path d="M1 5h2v14H1zm4 0h2v14H5zm17 0H10c-.55 0-1 .45-1 1v12c0 .55.45 1 1 1h12c.55 0 1-.45 1-1V6c0-.55-.45-1-1-1zM11 17l2.5-3.15L15.29 16l2.5-3.22L21 17H11z"/></svg>

<svg width="24" height="24" viewBox="0 0 24 24" fill="none" xmlns="http://www.w3.org/2000/svg">
<g clip-path="url(#clip0_147_3270)">
<path d="M1 5H3V19H1V5ZM5 5H7V19H5V5ZM22 5H10C9.45 5 9 5.45 9 6V18C9 18.55 9.45 19 10 19H22C22.55 19 23 18.55 23 18V6C23 5.45 22.55 5 22 5ZM11 17L13.5 13.85L15.29 16L17.79 12.78L21 17H11Z" fill="#323232"/>
</g>
<defs>
<clipPath id="clip0_147_3270">
<rect width="24" height="24" fill="white"/>
</clipPath>
</defs>
</svg>
